resources/svg/linkedin.svg

<svg width="19" height="19" viewBox="0 0 19 19" fill="none" xmlns="http://www.w3.org/2000/svg">
<g id="ri:linkedin-fill">
<path id="Vector" d="M5.29294 4.1617C5.29274 4.56622 5.13185 4.95409 4.84566 5.23999C4.55948 5.52589 4.17144 5.68639 3.76692 5.68619C3.3624 5.68599 2.97453 5.5251 2.68863 5.23891C2.40273 4.95273 2.24223 4.56469 2.24243 4.16017C2.24263 3.75565 2.40352 3.36778 2.68971 3.08188C2.97589 2.79598 3.36392 2.63548 3.76845 2.63568C4.17297 2.63588 4.56084 2.79677 4.84674 3.08296C5.13264 3.36914 5.29314 3.75717 5.29294 4.1617ZM5.3387 6.81564H2.28819V16.3637H5.3387V6.81564ZM10.1585 6.81564H7.12324V16.3637H10.128V11.3533C10.128 8.56205 13.7657 8.30276 13.7657 11.3533V16.3637H16.7781V10.3161C16.7781 5.61069 11.3939 5.78609 10.128 8.09685L10.1585 6.81564Z" fill="white"/>
</g>
</svg>

<svg xmlns="http://www.w3.org/2000/svg" fill="none" viewBox="0 0 19 19">
  <path fill="currentColor" d="M5.293 4.162a1.525 1.525 0 1 1-3.05-.002 1.525 1.525 0 0 1 3.05.002Zm.046 2.654h-3.05v9.548h3.05V6.816Zm4.82 0H7.123v9.548h3.005v-5.01c0-2.792 3.638-3.051 3.638 0v5.01h3.012v-6.048c0-4.705-5.384-4.53-6.65-2.22l.03-1.28Z"/>
</svg>
